Adwaita/scalable/ui/focus-windows-symbolic.svg

<?xml version="1.0" encoding="UTF-8"?>
<svg height="16px" viewBox="0 0 16 16" width="16px" xmlns="http://www.w3.org/2000/svg">
    <path d="m 8.019531 1.007812 c -0.53125 0 -1.03125 0.421876 -1.03125 1 v 7.011719 h 8.011719 v -7.042969 c 0 -0.578124 -0.523438 -0.96875 -1.023438 -0.96875 z m 0.96875 3.015626 h 4.011719 v 2.996093 h -4.011719 z m -6.953125 2.984374 c -0.53125 0 -1.03125 0.421876 -1.03125 1 v 7.011719 h 8.011719 v -3.984375 h -2 v 1.984375 h -4.011719 v -2.996093 h 2.015625 v -3.015626 z m 0 0" fill="#2e3434"/>
</svg>

<svg xmlns="http://www.w3.org/2000/svg" width="16" height="16"><g color="#000" font-weight="400" font-family="sans-serif" fill="#2e3436"><path d="M2.035 7.008c-.531 0-1.031.421-1.031 1v7.012h8.012v-3.985h-2v1.985H3.004v-2.997H5.02V7.008z" style="line-height:normal;text-indent:0;text-align:start;text-decoration-line:none;text-decoration-style:solid;text-decoration-color:#000;text-transform:none;white-space:normal;isolation:auto;mix-blend-mode:normal;solid-color:#000;solid-opacity:1;marker:none" overflow="visible"/><path d="M8.02 1.008c-.532 0-1.032.421-1.032 1V9.02H15V1.977c0-.579-.521-.97-1.021-.97zm.968 3.015H13V7.02H8.988z" style="line-height:normal;text-indent:0;text-align:start;text-decoration-line:none;text-decoration-style:solid;text-decoration-color:#000;text-transform:none;white-space:normal;isolation:auto;mix-blend-mode:normal;solid-color:#000;solid-opacity:1;marker:none" overflow="visible"/></g></svg>
